X: 20651
T: Lude's Lament
%R: air, waltz
B: James Oswald "The Caledonian Pocket Companion" v.2 p.65 #1
Z: 2019 John Chambers <jc:trillian.mit.edu>
M: 3/4
L: 1/8
K:D
"_Slow"d>e |\
f2 f2 Te>d | TB3 A F2 | A2 A2 B>c | d4 (de) | f2 (af)(ed) |\
TB3 A F2 | A2 A2 Bd | d4 (ef) | g2 g2 Tfe | Tf2 ed (d/e/f) |
Te2 dB (B/d/e) | d2 (BA) A2 | AF A2 f2 | Ted d4 | AF A2 f2 |\
Ted d2 (ef) | (dB) B2 (ef) | (dA) A3 A | .A.A (a2 f2) | (ed) d2 A2 |
.A.A (a2 f2) | ed (a2 f2) | (af)(af)(Ted) | efTed B2 | A3 B (d/e/f) |\
{f2}e4 d2 | A3 a f2 | Te2 dB d2 | A3 B (d/e/f) | {f2}Te4 d2 |
f6 | e6 | d3 e f2 | d2 (BA) A2 | F6 |\
A6 | (B2 A2) F2 | (BA)(FE) D2 | (g2 f2) e2 | faba f2 |\
(ba) Tf2 (ed) | (ef)(ed) B2 |
(AF) A2 f2 | (ed) d4 | (FA) A2 f2 | (ed) d2 (ef) | (dB) B3 e |\
(dA) A3 A | .A.A (a2 f2) | (ed) d2 A2 | .A.A (a2 f2) | ed (a2 f2) |
afafTed | (ef)(ed) B2 | A3 B (d/e/f) | {f2}e4 d2 | A3 a f2 |\
Te2 (dB) d2 | A3 B (d/e/f) | {f2}e4 d2 | ba f2 (Ted) | Hd4 |]


